!!!OTL: Ritter Ulrich (Ulinger).
!!!ARE: Europa, Mitteleuropa, Deutschland
!!!ODT: 1570 (c.)
!!!SCT: A0013A
!!!TXL: @@DE
!!!YEM: Copyright 1995, estate of Helmut Schaffrath.
**kern	**text
*M6/4	*
*k[]	*
*e:phr	*
!LO:TX:a:t=phryg.	!
{4e	Es
=1	=1
2e	ritt
4a	ein
[4a	Rit-
4a]	-ter
4g	wohl
=2	=2
2a	durch
4b	das
2cc}	Ried,
{4b	er
=3	=3
2a	fieng
4a	es
(4g	an
4f)	.
4e	ein
=4	=4
2a	neu-
(8gL	-es
8fJ)	.
2e}	Lied,
{(8aL	gar
8bJ)	.
=5	=5
(4cc	ſchö-
4b)	.
4a	-ne
2g	thät
4a	er
=6	=6
(2e	ſin-
4d)	.
2c	-gen,
4r}	.
=7	=7
{(2g	(ſin-
4f)	.
(4e	-gen,)
4f)	.
4g	daß
=8	=8
(<4a	Berg
4b/)	.
4a	und
2g	Thal
4a	er-
=9	=9
2.f	-klin-
2e}	-gen.
==	==
!!!GTL: Balladen und Romanzen (erzählende Volkslieder)
!!!AGN: Romanze, Ballade, Lied
!! Melodie nach Nicolai, Almanach II, No 21, S.210
!!!ONB: ESAC (Essen Associative Code) Database: ALTDEU
!!!AMT: compound duple
!!!AIN: vox
!!!EED: Helmut Schaffrath
!!!EEV: 1.0
!!!RDF**kern: < = below
!!!AMD: Phrygian
!!!URL-scan: https://rosdok.uni-rostock.de/mcrviewer/recordIdentifier/rosdok_ppn738218359/iview2/phys_0128.iview2?x=-1943.3364377182775&y=532.9383003434632&scale=0.24486887115165337&rotation=0&layout=singlePageLayout&logicalDiv=log_0007
!!!ENC: Anna Maria Matuszewska
!!!EEV: 2024/15/02
*-	*-
